polaris-icons/icons/MetaobjectReference.svg

<svg viewBox="0 0 20 20" xmlns="http://www.w3.org/2000/svg">
  <path fill-rule="evenodd" d="M4 3.5V5H3.5C2.94772 5 2.5 5.44772 2.5 6V10C2.5 10.0863 2.51094 10.1701 2.5315 10.25C2.51094 10.3299 2.5 10.4137 2.5 10.5V11.25C2.5 11.6642 2.83579 12 3.25 12C3.66421 12 4 11.6642 4 11.25V11H16V14.75H9.75C9.33579 14.75 9 15.0858 9 15.5C9 15.9142 9.33579 16.25 9.75 16.25H16.5C17.0523 16.25 17.5 15.8023 17.5 15.25V10.5C17.5 9.94772 17.0523 9.5 16.5 9.5H16V8C16 7.44772 15.5523 7 15 7H12.5C11.9477 7 11.5 7.44772 11.5 8V9.5H10V6C10 5.44772 9.55228 5 9 5H8.5V3.5C8.5 2.94772 8.05228 2.5 7.5 2.5H5C4.44772 2.5 4 2.94772 4 3.5ZM5.5 4V5H7V4H5.5ZM8.5 6.5V9.5H4V6.5H8.5ZM13 9.5H14.5V8.5H13V9.5Z" fill="#5C5F62"/>
  <path d="M4 15C3.30964 15 2.75 15.5596 2.75 16.25V16.75C2.75 17.1642 2.41421 17.5 2 17.5C1.58579 17.5 1.25 17.1642 1.25 16.75V16.25C1.25 14.7312 2.48122 13.5 4 13.5H5.43934L4.96967 13.0303C4.67677 12.7374 4.67677 12.2626 4.96967 11.9697C5.26256 11.6768 5.73743 11.6768 6.03033 11.9697L7.78033 13.7197C7.92098 13.8603 8 14.0511 8 14.25C8 14.4489 7.92098 14.6397 7.78033 14.7803L6.03033 16.5303C5.73744 16.8232 5.26256 16.8232 4.96967 16.5303C4.67678 16.2374 4.67678 15.7626 4.96967 15.4697L5.43934 15H4Z" fill="#5C5F62"/>
</svg>

<svg viewBox="0 0 20 20" xmlns="http://www.w3.org/2000/svg"><path fill-rule="evenodd" d="M4 3.5v1.5h-.5a1 1 0 0 0-1 1v4c0 .086.01.17.031.25-.02.08-.031.164-.031.25v.75a.75.75 0 0 0 1.5 0v-.25h12v3.75h-6.25a.75.75 0 0 0 0 1.5h6.75a1 1 0 0 0 1-1v-4.75a1 1 0 0 0-1-1h-.5v-1.5a1 1 0 0 0-1-1h-2.5a1 1 0 0 0-1 1v1.5h-1.5v-3.5a1 1 0 0 0-1-1h-.5v-1.5a1 1 0 0 0-1-1h-2.5a1 1 0 0 0-1 1Zm1.5.5v1h1.5v-1h-1.5Zm3 2.5v3h-4.5v-3h4.5Zm4.5 3h1.5v-1h-1.5v1Z" fill="#5C5F62"/><path d="M4 15c-.69 0-1.25.56-1.25 1.25v.5a.75.75 0 0 1-1.5 0v-.5a2.75 2.75 0 0 1 2.75-2.75h1.44l-.47-.47a.75.75 0 1 1 1.06-1.06l1.75 1.75a.75.75 0 0 1 0 1.06l-1.75 1.75a.75.75 0 0 1-1.06-1.06l.47-.47h-1.44Z" fill="#5C5F62"/></svg>
